places/scalable/folder-brown-mozilla.svg

<?xml version="1.0" standalone="no"?><!-- Generator: Gravit.io -->
<svg xmlns="http://www.w3.org/2000/svg" 
  xmlns:xlink="http://www.w3.org/1999/xlink" style="isolation:isolate" viewBox="0 0 256 256" width="256" height="256">
  <g id="folder">
    <path d=" M 53.705469 21 C 17.390414 21 13.666667 23.055089 13.666667 59.371035 L 13.666667 111.538229 L 243.666667 111.538229 L 243.666667 79.563042 C 243.666667 43.247098 239.942918 37.460768 203.627861 37.460768 L 114.291921 37.460768 L 97.864201 21 L 53.705469 21 Z " id="orange" fill="#957552"/>
    <path d=" M 53.705469 70.384311 C 17.388415 70.384311 13.666667 74.113541 13.666667 110.429488 L 13.666667 194.952819 C 13.666667 231.268759 17.388415 235 53.705469 235 L 203.627861 235 C 239.944918 235 243.666667 231.268759 243.666667 194.952819 L 243.666667 93.968715 C 243.666667 57.652775 239.944918 53.921534 203.627861 53.921534 L 120.196686 53.921534 L 103.758968 70.384311 L 53.705469 70.384311 Z " id="change-color-easy" fill="#AE8E6C"/>
    <linearGradient id="_lgradient_7" x1="0" y1="0.5" x2="2.83276944882399e-16" y2="-0.5" gradientTransform="matrix(230,0,0,181.078466,13.666667,53.921534)" gradientUnits="userSpaceOnUse">
      <stop offset="0%" stop-opacity="0.07" style="stop-color:rgb(255,255,255)"/>
      <stop offset="67.28219512106674%" stop-opacity="0" style="stop-color:rgb(252,239,232)"/>
    </linearGradient>
    <path d=" M 53.705469 70.384311 C 17.388415 70.384311 13.666667 74.113541 13.666667 110.429488 L 13.666667 194.952819 C 13.666667 231.268759 17.388415 235 53.705469 235 L 203.627861 235 C 239.944918 235 243.666667 231.268759 243.666667 194.952819 L 243.666667 93.968715 C 243.666667 57.652775 239.944918 53.921534 203.627861 53.921534 L 120.196686 53.921534 L 103.758968 70.384311 L 53.705469 70.384311 Z " id="gradient white" fill="url(#_lgradient_7)"/>
    <g opacity="0.4">
      <radialGradient id="_rgradient_14" fx="0.5000000213726793" fy="0.13577386516315215" cx="0.5" cy="0.5" r="0.27154159375000003" gradientTransform="matrix(230,0,0,60.620138,13.666667,21)" gradientUnits="userSpaceOnUse">
        <stop offset="0%" stop-opacity="1" style="stop-color:rgb(255,255,255)"/>
        <stop offset="100%" stop-opacity="0.20392157" style="stop-color:rgb(255,255,255)"/>
      </radialGradient>
      <path d=" M 53.705469 21 C 17.390414 21 13.666667 23.055089 13.666667 59.371035 L 13.666667 61.430128 C 13.666667 25.114188 17.390414 23.057095 53.705469 23.057095 L 97.864201 23.057095 L 114.291921 39.517861 L 203.627861 39.517861 C 239.942918 39.517861 243.666667 45.304195 243.666667 81.620138 L 243.666667 79.563042 C 243.666667 43.247098 239.942918 37.460768 203.627861 37.460768 L 114.291921 37.460768 L 97.864201 21 L 53.705469 21 Z " id="white" fill="url(#_rgradient_14)"/>
    </g>
    <g opacity="0.4">
      <radialGradient id="_rgradient_15" fx="0.48214287810452355" fy="0.2108154047287485" cx="0.5" cy="0.5" r="0.27154159375" gradientTransform="matrix(230,0,0,58.565044,13.666667,53.921534)" gradientUnits="userSpaceOnUse">
        <stop offset="0%" stop-opacity="1" style="stop-color:rgb(255,255,255)"/>
        <stop offset="100%" stop-opacity="0.20392157" style="stop-color:rgb(255,255,255)"/>
      </radialGradient>
      <path d=" M 120.196686 53.921534 L 103.758968 70.384311 L 53.705469 70.384311 C 17.390414 70.384311 13.666667 74.111537 13.666667 110.427484 L 13.666667 112.486577 C 13.666667 76.170637 17.390414 72.4414 53.705469 72.4414 L 103.758968 72.4414 L 120.196686 55.980634 L 203.627861 55.980634 C 239.942918 55.980634 243.666667 59.707868 243.666667 96.023808 L 243.666667 93.966711 C 243.666667 57.650771 239.942918 53.921534 203.627861 53.921534 L 120.196686 53.921534 Z " id="white" fill="url(#_rgradient_15)"/>
    </g>
    <g opacity="0.1">
      <path d=" M 243.666667 167.095832 L 177.951803 232.940899 L 203.627861 232.940899 C 239.942918 232.940899 243.666667 229.213666 243.666667 192.897726 L 243.666667 167.095832 Z " id="white" fill="rgb(255,255,255)"/>
    </g>
    <g opacity="0.2">
      <path d=" M 13.666667 192.897726 L 13.666667 194.954823 C 13.666667 231.270763 17.390414 235 53.705469 235 L 203.627861 235 C 239.942918 235 243.666667 231.270763 243.666667 194.954823 L 243.666667 192.897726 C 243.666667 229.213666 239.942918 232.940899 203.627861 232.940899 L 53.705469 232.940899 C 17.390414 232.940899 13.666667 229.213666 13.666667 192.897726 Z " id="dark" fill="rgb(0,0,0)"/>
    </g>
  </g>
  <g id="mozilla" style="opacity:0.62;">
    <path d=" M 108.962225 149.901835 C 106.216025 149.901835 104.5103 151.940335 104.5103 155.47696 C 104.5103 158.72221 106.00805 161.21881 108.92045 161.21881 C 111.70805 161.21881 113.538575 158.97196 113.538575 155.393485 C 113.538575 151.60756 111.500075 149.901835 108.962225 149.901835 Z " id="Path" fill="#FFFFFF"/>
    <path d=" M 182.5385 159.34636 C 182.5385 160.55266 183.1205 161.51011 184.7435 161.51011 C 186.6575 161.51011 188.696 160.136785 188.8205 157.01641 C 187.9475 156.891535 186.9905 156.76666 186.11675 156.76666 C 184.20275 156.76666 182.5385 157.30741 182.5385 159.34636 Z " id="Path" fill="#FFFFFF"/>
    <path d=" M 192.9395 165.33781 C 190.4435 165.33781 189.07025 163.881385 188.8205 161.59276 C 187.739 163.50691 185.825 165.33781 182.7875 165.33781 C 180.08375 165.33781 177.005 163.881385 177.005 159.970135 C 177.005 155.352085 181.45625 154.270135 185.74175 154.270135 C 186.782 154.270135 187.86425 154.311985 188.8205 154.436785 L 188.8205 153.81256 C 188.8205 151.898485 188.77925 149.61031 185.74175 149.61031 C 184.619 149.61031 183.74525 149.693785 182.87075 150.15106 L 182.26475 152.262685 L 177.97925 151.805035 L 178.7105 147.48871 C 181.99775 146.15716 183.66125 145.78261 186.74075 145.78261 C 190.7765 145.78261 194.18825 147.862885 194.18825 152.14861 L 194.18825 160.303435 C 194.18825 161.385235 194.6045 161.75941 195.47825 161.75941 C 195.728 161.75941 195.977 161.717635 196.26875 161.63461 L 196.31 164.463835 C 195.31175 165.00496 194.105 165.33781 192.9395 165.33781 Z  M 164.141 164.921635 L 172.25375 136.29634 L 177.5375 136.29634 L 169.42475 164.921635 L 164.141 164.921635 Z  M 153.23975 164.921635 L 161.3525 136.29634 L 166.63625 136.29634 L 158.5235 164.921635 L 153.23975 164.921635 Z  M 149.726 152.897485 L 144.10925 152.897485 L 144.10925 146.15701 L 149.726 146.15701 L 149.726 152.897485 Z  M 149.726 164.92171 L 144.10925 164.92171 L 144.10925 158.181235 L 149.726 158.181235 L 149.726 164.92171 Z  M 139.0145 164.92171 L 122.6216 164.92171 L 122.080925 162.092335 L 132.39875 150.23431 L 126.53285 150.23431 L 125.70065 153.14716 L 121.831175 152.730835 L 122.4968 146.156935 L 138.97325 146.156935 L 139.3895 148.986235 L 128.987 160.844335 L 135.062 160.844335 L 135.93575 157.931935 L 140.18 158.347735 L 139.0145 164.92171 Z  M 108.754325 165.33751 C 102.970775 165.33751 98.9765 161.801185 98.9765 155.80981 C 98.9765 150.31771 102.305225 145.782685 109.045325 145.782685 C 115.785425 145.782685 119.07245 150.31771 119.07245 155.560135 C 119.07245 161.55151 114.745325 165.33751 108.754325 165.33751 Z  M 96.64115 164.92171 L 88.7774 164.92171 L 88.7774 154.35346 C 88.7774 151.10821 87.6959 149.860135 85.573925 149.860135 C 82.9943 149.860135 81.9542 151.690735 81.9542 154.312135 L 81.9542 160.844335 L 84.45035 160.844335 L 84.45035 164.92171 L 76.586975 164.92171 L 76.586975 154.35346 C 76.586975 151.10821 75.5051 149.860135 73.383125 149.860135 C 70.8035 149.860135 69.763325 151.690735 69.763325 154.312135 L 69.763325 160.844335 L 73.341725 160.844335 L 73.341725 164.92171 L 61.899575 164.92171 L 61.899575 160.844335 L 64.396175 160.844335 L 64.396175 150.23431 L 61.899575 150.23431 L 61.899575 146.156935 L 69.763325 146.156935 L 69.763325 148.986235 C 70.8866 146.98951 72.842375 145.78276 75.4634 145.78276 C 78.167825 145.78276 80.66435 147.07261 81.57965 149.818435 C 82.61975 147.32191 84.741725 145.78276 87.6959 145.78276 C 91.066025 145.78276 94.145 147.82126 94.145 152.273635 L 94.145 160.844335 L 96.64115 160.844335 L 96.64115 164.92171 Z  M 52.999986 130.844119 L 52.999986 173.733835 L 203 173.733835 L 203 130.844119 L 52.999986 130.844119 Z " id="Compound Path" fill="#FFFFFF"/>
  </g>
</svg>

<svg xmlns="http://www.w3.org/2000/svg" style="isolation:isolate" width="256" height="256"><path d="M53.705 21c-36.315 0-40.038 2.055-40.038 38.371v52.167h230V79.563c0-36.316-3.724-42.102-40.04-42.102h-89.335L97.864 21H53.705z" fill="#957552"/><path d="M53.705 70.384c-36.317 0-40.038 3.73-40.038 40.045v84.524c0 36.316 3.721 40.047 40.038 40.047h149.923c36.317 0 40.039-3.731 40.039-40.047V93.969c0-36.316-3.722-40.047-40.04-40.047h-83.43l-16.438 16.462H53.705z" fill="#AE8E6C"/><linearGradient id="a" y1=".5" x2="0" y2="-.5" gradientTransform="matrix(230 0 0 181.07847 13.667 53.922)" gradientUnits="userSpaceOnUse"><stop offset="0%" stop-opacity=".07" stop-color="#fff"/><stop offset="67.282%" stop-opacity="0" stop-color="#fcefe8"/></linearGradient><path d="M53.705 70.384c-36.317 0-40.038 3.73-40.038 40.045v84.524c0 36.316 3.721 40.047 40.038 40.047h149.923c36.317 0 40.039-3.731 40.039-40.047V93.969c0-36.316-3.722-40.047-40.04-40.047h-83.43l-16.438 16.462H53.705z" fill="url(#a)"/><g opacity=".4"><radialGradient id="b" fx=".5" fy=".136" cx=".5" cy=".5" r=".272" gradientTransform="matrix(230 0 0 60.62014 13.667 21)" gradientUnits="userSpaceOnUse"><stop offset="0%" stop-color="#fff"/><stop offset="100%" stop-opacity=".204" stop-color="#fff"/></radialGradient><path d="M53.705 21c-36.315 0-40.038 2.055-40.038 38.371v2.06c0-36.317 3.723-38.374 40.038-38.374h44.16l16.427 16.46h89.336c36.315 0 40.039 5.787 40.039 42.103v-2.057c0-36.316-3.724-42.102-40.04-42.102h-89.335L97.864 21H53.705z" fill="url(#b)"/></g><g opacity=".4"><radialGradient id="c" fx=".482" fy=".211" cx=".5" cy=".5" r=".272" gradientTransform="matrix(230 0 0 58.56504 13.667 53.922)" gradientUnits="userSpaceOnUse"><stop offset="0%" stop-color="#fff"/><stop offset="100%" stop-opacity=".204" stop-color="#fff"/></radialGradient><path d="M120.197 53.922l-16.438 16.462H53.705c-36.315 0-40.038 3.728-40.038 40.043v2.06c0-36.316 3.723-40.046 40.038-40.046h50.054l16.438-16.46h83.43c36.316 0 40.04 3.727 40.04 40.043v-2.057c0-36.316-3.724-40.045-40.04-40.045h-83.43z" fill="url(#c)"/></g><path d="M243.667 167.096l-65.715 65.845h25.676c36.315 0 40.039-3.727 40.039-40.043v-25.802z" fill="#FFF" opacity=".1"/><path d="M13.667 192.898v2.057C13.667 231.27 17.39 235 53.705 235h149.923c36.315 0 40.039-3.73 40.039-40.045v-2.057c0 36.316-3.724 40.043-40.04 40.043H53.706c-36.315 0-40.038-3.727-40.038-40.043z" opacity=".2"/><g opacity=".62" fill="#FFF"><path d="M108.962 149.902c-2.746 0-4.452 2.038-4.452 5.575 0 3.245 1.498 5.742 4.41 5.742 2.788 0 4.619-2.247 4.619-5.826 0-3.785-2.039-5.491-4.577-5.491zM182.538 159.346c0 1.207.582 2.164 2.206 2.164 1.913 0 3.952-1.373 4.077-4.494-.874-.124-1.83-.25-2.704-.25-1.914 0-3.578.541-3.578 2.58z"/><path d="M192.94 165.338c-2.496 0-3.87-1.457-4.12-3.745-1.081 1.914-2.995 3.745-6.032 3.745-2.704 0-5.783-1.457-5.783-5.368 0-4.618 4.451-5.7 8.737-5.7 1.04 0 2.122.042 3.079.167v-.624c0-1.915-.042-4.203-3.08-4.203-1.122 0-1.996.084-2.87.541l-.606 2.112-4.286-.458.731-4.316c3.288-1.332 4.951-1.706 8.03-1.706 4.036 0 7.448 2.08 7.448 6.366v8.154c0 1.082.417 1.456 1.29 1.456.25 0 .499-.041.79-.124l.042 2.829c-.998.541-2.205.874-3.37.874zm-28.799-.416l8.113-28.626h5.284l-8.113 28.626h-5.284zm-10.901 0l8.112-28.626h5.284l-8.112 28.626h-5.284zm-3.514-12.025h-5.617v-6.74h5.617v6.74zm0 12.025h-5.617v-6.74h5.617v6.74zm-10.712 0h-16.392l-.541-2.83 10.318-11.858h-5.866l-.832 2.913-3.87-.416.666-6.574h16.476l.416 2.83-10.402 11.857h6.075l.874-2.912 4.244.416-1.166 6.574zm-30.26.416c-5.783 0-9.778-3.537-9.778-9.528 0-5.492 3.33-10.027 10.07-10.027s10.026 4.535 10.026 9.777c0 5.992-4.327 9.778-10.318 9.778zm-12.113-.416h-7.864v-10.569c0-3.245-1.081-4.493-3.203-4.493-2.58 0-3.62 1.83-3.62 4.452v6.532h2.496v4.078h-7.863v-10.569c0-3.245-1.082-4.493-3.204-4.493-2.58 0-3.62 1.83-3.62 4.452v6.532h3.579v4.078H61.9v-4.078h2.496v-10.61H61.9v-4.077h7.863v2.83c1.124-1.997 3.08-3.204 5.7-3.204 2.705 0 5.201 1.29 6.117 4.035 1.04-2.496 3.162-4.035 6.116-4.035 3.37 0 6.449 2.038 6.449 6.49v8.571h2.496v4.078zM53 130.844v42.89h150v-42.89H53z"/></g></svg>
